images/agave_footer_logo.svg

<svg width="54" height="72" viewBox="0 0 54 72" fill="none" xmlns="http://www.w3.org/2000/svg">
<path fill-rule="evenodd" clip-rule="evenodd" d="M9.55042 17.8224C9.45547 16.6777 9.41078 15.6093 9.38844 14.6553C9.29349 10.0219 9.82969 6.91469 9.85203 6.78387L10.2765 4.35266L12.3264 5.79721C12.4381 5.87353 15.0521 7.72692 18.314 11.1012C18.6938 11.4937 19.0959 11.9188 19.5093 12.3767L19.4199 12.6548C18.2749 16.2961 17.5543 20.0629 17.3421 23.9332C15.6106 22.2542 13.84 20.8097 12.1532 19.5886C11.254 18.9399 10.3827 18.3512 9.55042 17.8224ZM44.437 17.8224C44.532 16.6777 44.5767 15.6093 44.599 14.6553C44.694 10.0219 44.1578 6.91469 44.1354 6.78387L43.7109 4.35266L41.6611 5.79721C41.5494 5.87353 38.9354 7.72692 35.6735 11.1012C35.2937 11.4937 34.8915 11.9188 34.4782 12.3767L34.5676 12.6602C35.7126 16.3016 36.4331 20.0683 36.6454 23.9386C38.3769 22.2597 40.1474 20.8151 41.8342 19.5941C42.7335 18.9454 43.6048 18.3567 44.437 17.8279V17.8224Z" fill="white"/>
<path fill-rule="evenodd" clip-rule="evenodd" d="M26.9944 49.9761C14.3881 50.5649 1.78175 40.2785 0.173149 17.1166L0 14.6527L2.34588 15.5848C2.75921 15.7484 11.7294 19.3788 18.7336 27.4574C18.7224 27.0813 18.7168 26.6997 18.7168 26.3181C18.7168 16.8222 21.9061 7.96958 27 0C32.0939 7.96413 35.2832 16.8222 35.2832 26.3181C35.2832 26.6997 35.2776 27.0813 35.2664 27.4574C42.2706 19.3788 51.2408 15.7484 51.6541 15.5848L54 14.6527L53.8269 17.1166C52.2182 40.2785 39.6119 50.5649 27.0056 49.9761H26.9944ZM24.2185 39.7498C23.5761 39.7498 23.3136 39.9951 23.3136 40.5947C23.3136 42.0556 24.9669 43.2385 26.9944 43.2385C29.0275 43.2385 30.6752 42.0556 30.6752 40.5947C30.6752 39.9951 30.4127 39.7552 29.7704 39.7552C29.4297 39.7661 29.0834 39.7988 28.7482 39.8588L28.7147 39.8643C28.145 39.9569 27.5697 40.006 26.9944 40.0169C26.4191 40.006 25.8382 39.9569 25.2685 39.8643C24.9222 39.8043 24.5647 39.7716 24.2129 39.7552L24.2185 39.7498ZM17.5997 33.9225C19.2362 33.9225 20.56 35.2144 20.56 36.8116C20.56 38.4088 19.2362 39.7007 17.5997 39.7007C15.9632 39.7007 14.6394 38.4088 14.6394 36.8116C14.6394 35.2144 15.9632 33.9225 17.5997 33.9225ZM36.3835 33.9225C38.0201 33.9225 39.3438 35.2144 39.3438 36.8116C39.3438 38.4088 38.0201 39.7007 36.3835 39.7007C34.747 39.7007 33.4232 38.4088 33.4232 36.8116C33.4232 35.2144 34.747 33.9225 36.3835 33.9225Z" fill="white"/>
<path d="M9.10863 71.8536L8.03054 68.5383H4.35831L3.26675 71.8536H2L5.61833 61.1098H6.76379L10.3889 71.8536H9.10863ZM7.633 67.3307L6.63577 64.2275C6.60882 64.1397 6.57513 64.0324 6.5347 63.9055C6.49876 63.7787 6.46058 63.642 6.42015 63.4957C6.37972 63.3493 6.33929 63.198 6.29887 63.0419C6.25844 62.8809 6.22026 62.7248 6.18432 62.5735C6.15288 62.7248 6.11694 62.8809 6.07651 63.0419C6.03608 63.2029 5.99566 63.3591 5.95523 63.5103C5.9148 63.6567 5.87437 63.7933 5.83394 63.9202C5.79801 64.0421 5.76656 64.1446 5.73961 64.2275L4.76259 67.3307H7.633Z" fill="white"/>
<path d="M18.0139 66.2036H21.2751V71.4511C21.028 71.5389 20.7787 71.617 20.5272 71.6853C20.2756 71.7536 20.0173 71.8097 19.7523 71.8536C19.4873 71.9024 19.2088 71.939 18.9168 71.9634C18.6248 71.9878 18.3104 72 17.9735 72C17.2682 72 16.6438 71.8731 16.1003 71.6194C15.5567 71.3608 15.0986 70.9949 14.7257 70.5216C14.3529 70.0435 14.0699 69.4653 13.8767 68.7871C13.6836 68.104 13.587 67.338 13.587 66.489C13.587 65.6498 13.6926 64.8911 13.9037 64.2129C14.1193 63.5347 14.4315 62.959 14.8403 62.4857C15.249 62.0075 15.7522 61.6416 16.3496 61.3879C16.9515 61.1293 17.6366 61 18.4047 61C18.9033 61 19.3817 61.0537 19.8399 61.161C20.2981 61.2684 20.7248 61.4245 21.1201 61.6294L20.635 62.815C20.4733 62.7321 20.2981 62.654 20.1094 62.5808C19.9252 62.5077 19.7343 62.4442 19.5367 62.3906C19.339 62.332 19.1346 62.2857 18.9235 62.2515C18.7169 62.2173 18.5103 62.2003 18.3036 62.2003C17.7556 62.2003 17.2705 62.3003 16.8482 62.5003C16.426 62.6955 16.0711 62.9785 15.7836 63.3493C15.5006 63.7201 15.285 64.1714 15.1367 64.7033C14.9885 65.2351 14.9144 65.8352 14.9144 66.5037C14.9144 67.1379 14.975 67.7186 15.0963 68.2455C15.2221 68.7725 15.4197 69.2262 15.6893 69.6068C15.9588 69.9874 16.3069 70.2825 16.7337 70.4923C17.1604 70.7022 17.6747 70.8071 18.2767 70.8071C18.4743 70.8071 18.654 70.8022 18.8157 70.7924C18.9819 70.7778 19.1346 70.7607 19.2739 70.7412C19.4132 70.7217 19.5434 70.6997 19.6647 70.6753C19.7905 70.646 19.9118 70.6192 20.0286 70.5948V67.4039H18.0139V66.2036Z" fill="white"/>
<path d="M31.8649 71.8536L30.7868 68.5383H27.1145L26.023 71.8536H24.7562L28.3746 61.1098H29.52L33.1451 71.8536H31.8649ZM30.3892 67.3307L29.392 64.2275C29.365 64.1397 29.3314 64.0324 29.2909 63.9055C29.255 63.7787 29.2168 63.642 29.1764 63.4957C29.136 63.3493 29.0955 63.198 29.0551 63.0419C29.0147 62.8809 28.9765 62.7248 28.9406 62.5735C28.9091 62.7248 28.8732 62.8809 28.8327 63.0419C28.7923 63.2029 28.7519 63.3591 28.7115 63.5103C28.671 63.6567 28.6306 63.7933 28.5902 63.9202C28.5542 64.0421 28.5228 64.1446 28.4958 64.2275L27.5188 67.3307H30.3892Z" fill="white"/>
<path d="M41.7202 61.1537H43.0543L39.7594 71.8536H38.4994L35.218 61.1537H36.5454L38.5331 67.9381C38.6634 68.3821 38.7757 68.8115 38.87 69.2262C38.9643 69.6361 39.0497 70.0215 39.126 70.3826C39.1934 70.0215 39.2788 69.6361 39.3821 69.2262C39.4854 68.8115 39.6067 68.3675 39.7459 67.8942L41.7202 61.1537Z" fill="white"/>
<path d="M52 71.8536H46.8858V61.1537H52V62.354H48.1391V65.662H51.744V66.8476H48.1391V70.6534H52V71.8536Z" fill="white"/>
</svg>

<svg xmlns="http://www.w3.org/2000/svg" width="54" height="72" fill="none" xmlns:v="https://vecta.io/nano"><path d="M9.55 17.822l-.162-3.167c-.095-4.633.441-7.741.464-7.871l.424-2.431 2.05 1.445c.112.076 2.726 1.93 5.988 5.304l1.195 1.275-.089.278c-1.145 3.641-1.866 7.408-2.078 11.278-1.731-1.679-3.502-3.123-5.189-4.345a53.47 53.47 0 0 0-2.603-1.766zm34.887 0c.095-1.145.14-2.213.162-3.167.095-4.633-.441-7.741-.464-7.871l-.424-2.431-2.05 1.445c-.112.076-2.726 1.93-5.988 5.304a50.19 50.19 0 0 0-1.195 1.275l.089.284c1.145 3.641 1.866 7.408 2.078 11.278a47.35 47.35 0 0 1 5.189-4.344 53.56 53.56 0 0 1 2.603-1.766v-.006zM26.994 49.976c-12.606.589-25.213-9.698-26.821-32.86L0 14.653l2.346.932c.413.164 9.384 3.794 16.388 11.873l-.017-1.139C18.717 16.822 21.906 7.97 27 0c5.094 7.964 8.283 16.822 8.283 26.318a39.01 39.01 0 0 1-.017 1.139c7.004-8.079 15.974-11.709 16.388-11.873L54 14.653l-.173 2.464c-1.609 23.162-14.215 33.448-26.821 32.86h-.011zM24.219 39.75c-.642 0-.905.245-.905.845 0 1.461 1.653 2.644 3.681 2.644s3.681-1.183 3.681-2.644c0-.6-.262-.84-.905-.84a7.13 7.13 0 0 0-1.022.104l-.034.005a12.16 12.16 0 0 1-1.72.153c-.575-.011-1.156-.06-1.726-.153-.346-.06-.704-.093-1.056-.109l.006-.005zM17.6 33.923c1.637 0 2.96 1.292 2.96 2.889s-1.324 2.889-2.96 2.889-2.96-1.292-2.96-2.889 1.324-2.889 2.96-2.889zm18.784 0c1.637 0 2.96 1.292 2.96 2.889s-1.324 2.889-2.96 2.889-2.96-1.292-2.96-2.889 1.324-2.889 2.96-2.889z" fill-rule="evenodd" fill="#fff"/><path d="M9.109 71.854l-1.078-3.315H4.358l-1.092 3.315H2L5.618 61.11h1.145l3.625 10.744h-1.28zm-1.476-4.523l-.997-3.103-.101-.322-.115-.41-.121-.454-.115-.468-.108.468-.121.468-.121.41-.094.307-.977 3.103h2.87zm10.381-1.127h3.261v5.248l-.748.234a7.86 7.86 0 0 1-.775.168c-.265.049-.544.085-.836.11l-.943.037c-.705 0-1.33-.127-1.873-.381a3.81 3.81 0 0 1-1.375-1.098c-.373-.478-.656-1.056-.849-1.735s-.29-1.449-.29-2.298c0-.839.106-1.598.317-2.276a4.78 4.78 0 0 1 .937-1.727 4.09 4.09 0 0 1 1.509-1.098c.597-.254 1.288-.388 2.056-.388.499 0 .977.054 1.435.161a5.51 5.51 0 0 1 1.28.468l-.485 1.186a5.56 5.56 0 0 0-.526-.234 5.2 5.2 0 0 0-.573-.19 4.93 4.93 0 0 0-.613-.139 3.79 3.79 0 0 0-.62-.051c-.548 0-1.033.1-1.455.3s-.777.478-1.065.849-.499.822-.647 1.354-.222 1.132-.222 1.8a7.77 7.77 0 0 0 .182 1.742c.126.527.323.981.593 1.361s.618.676 1.044.885.941.315 1.543.315l.539-.015.458-.051.391-.066.364-.08v-3.191h-2.015v-1.2zm13.851 5.65l-1.078-3.315h-3.672l-1.091 3.315h-1.267l3.618-10.744h1.145l3.625 10.744h-1.28zm-1.476-4.523l-.997-3.103-.101-.322-.114-.41-.121-.454-.114-.468-.108.468-.121.468-.121.41-.094.307-.977 3.103h2.87zm11.331-6.177h1.334l-3.295 10.7h-1.26l-3.281-10.7h1.327l1.988 6.784.337 1.288.256 1.156.256-1.156.364-1.332 1.974-6.74zM52 71.854h-5.114v-10.7H52v1.2h-3.861v3.308h3.605v1.186h-3.605v3.806H52v1.2z" fill="#fff"/></svg>
